fonts/icomoon.svg

<?xml version="1.0" standalone="no"?>
<!DOCTYPE svg PUBLIC "-//W3C//DTD SVG 1.1//EN" "http://www.w3.org/Graphics/SVG/1.1/DTD/svg11.dtd" >
<svg xmlns="http://www.w3.org/2000/svg">
<metadata>Generated by IcoMoon</metadata>
<defs>
<font id="icomoon" horiz-adv-x="512">
<font-face units-per-em="512" ascent="480" descent="-32" />
<missing-glyph horiz-adv-x="512" />
<glyph unicode="&#x20;" d="" horiz-adv-x="256" />
<glyph unicode="&#xe000;" d="M311.413 128.632c-11.055 1.759-11.307 32.157-11.307 32.157s32.484 32.158 39.564 75.401c19.045 0 30.809 45.973 11.761 62.148 0.795 17.027 24.48 133.662-95.431 133.662s-96.225-116.635-95.432-133.662c-19.047-16.175-7.285-62.148 11.761-62.148 7.079-43.243 39.564-75.401 39.564-75.401s-0.252-30.398-11.307-32.157c-35.61-5.666-168.586-64.317-168.586-128.632h448c0 64.315-132.976 122.966-168.587 128.632z" />
<glyph unicode="&#xe001;" d="M512 175.953v96.094l-73.387 12.231c-2.979 9.066-6.611 17.834-10.847 26.25l43.227 60.517-67.948 67.949-60.413-43.152c-8.455 4.277-17.269 7.944-26.384 10.951l-12.201 73.207h-96.094l-12.201-73.208c-9.115-3.007-17.929-6.674-26.383-10.951l-60.414 43.152-67.949-67.949 43.227-60.518c-4.235-8.415-7.867-17.183-10.846-26.249l-73.387-12.23v-96.094l73.559-12.26c2.98-8.984 6.605-17.674 10.821-26.015l-43.374-60.724 67.949-67.948 60.827 43.447c8.301-4.175 16.945-7.764 25.882-10.717l12.289-73.736h96.094l12.289 73.737c8.937 2.953 17.581 6.542 25.883 10.716l60.826-43.446 67.948 67.948-43.372 60.723c4.216 8.341 7.839 17.031 10.82 26.016l73.559 12.259zM256 160c-35.346 0-64 28.653-64 64s28.654 64 64 64c35.347 0 64-28.654 64-64s-28.653-64-64-64z" />
<glyph unicode="&#xe002;" d="M0 64h512v-64h-512zM64 192h64v-96h-64zM160 320h64v-224h-64zM256 224h64v-128h-64zM352 416h64v-320h-64z" />
<glyph unicode="&#xe003;" d="M544 29.417c0-22.75 13.014-42.454 32-52.092v-7.969c-5.313-0.727-10.736-1.112-16.25-1.112-34.004 0-64.674 14.264-86.361 37.132-13.111-3.491-27.001-5.376-41.389-5.376-79.529 0-144 57.308-144 128s64.471 128 144 128c79.529 0 144-57.308 144-128 0-27.674-9.882-53.296-26.678-74.233-3.412-7.412-5.322-15.656-5.322-24.35zM256 480c139.229 0 252.496-90.307 255.918-202.76-24.591 10.96-51.793 16.76-79.918 16.76-47.78 0-92.908-16.723-127.069-47.089-35.423-31.486-54.931-73.717-54.931-118.911 0-22.336 4.772-43.944 13.868-63.894-2.614-0.063-5.234-0.106-7.868-0.106-13.578 0-26.905 0.867-39.912 2.522-54.989-54.989-120.625-64.85-184.088-66.298v13.458c34.268 16.789 64 47.37 64 82.318 0 4.877-0.379 9.665-1.082 14.348-57.898 38.132-94.918 96.377-94.918 161.652 0 114.875 114.615 208 256 208z" horiz-adv-x="576" />
<glyph unicode="&#xe004;" d="M320 406.706v-67.979c18.103-7.902 34.75-19.204 49.137-33.59 30.221-30.22 46.863-70.4 46.863-113.137s-16.643-82.917-46.863-113.137c-30.22-30.22-70.399-46.863-113.137-46.863s-82.917 16.643-113.137 46.863c-30.22 30.22-46.863 70.4-46.863 113.137s16.643 82.917 46.863 113.137c14.387 14.387 31.034 25.689 49.137 33.591v67.978c-92.524-27.54-160-113.236-160-214.706 0-123.712 100.289-224 224-224s224 100.288 224 224c0 101.47-67.475 187.166-160 214.706zM224 480h64v-256h-64z" />
<glyph unicode="&#xe005;" d="M501.467 71.062l-230.276 197.38c10.724 20.149 16.809 43.141 16.809 67.558 0 79.529-64.471 144-144 144-14.547 0-28.586-2.166-41.823-6.177l83.195-83.195c12.445-12.445 12.445-32.81 0-45.255l-50.745-50.745c-12.445-12.445-32.81-12.445-45.255 0l-83.195 83.195c-4.011-13.237-6.177-27.276-6.177-41.823 0-79.529 64.471-144 144-144 24.417 0 47.409 6.085 67.558 16.81l197.38-230.276c11.454-13.362 31.008-14.113 43.452-1.669l50.746 50.746c12.444 12.444 11.693 31.997-1.669 43.451z" />
<glyph unicode="&#xe006;" d="M352 480c-88.365 0-160-71.634-160-160 0-10.013 0.929-19.808 2.688-29.312l-194.688-194.688v-96c0-17.673 14.327-32 32-32h32v32h64v64h64v64h64l41.521 41.521c17.005-6.158 35.348-9.521 54.479-9.521 88.365 0 160 71.634 160 160s-71.635 160-160 160zM399.937 319.937c-26.51 0-48 21.49-48 48s21.49 48 48 48 48-21.49 48-48-21.49-48-48-48z" />
<glyph unicode="&#xe007;" d="M192 64h320v-64h-320zM192 256h320v-64h-320zM192 448h320v-64h-320zM96 480v-128h-32v96h-32v32zM64 217v-25h64v-32h-96v73l64 30v25h-64v32h96v-73zM128 128v-160h-96v32h64v32h-64v32h64v32h-64v32z" />
<glyph unicode="&#xe008;" d="M0 448v-448h512v448h-512zM192 160v96h128v-96h-128zM320 128v-96h-128v96h128zM320 384v-96h-128v96h128zM160 384v-96h-128v96h128zM32 256h128v-96h-128v96zM352 256h128v-96h-128v96zM352 288v96h128v-96h-128zM32 128h128v-96h-128v96zM352 32v96h128v-96h-128z" />
<glyph unicode="&#xe009;" d="M432 480h-384c-26.4 0-48-21.6-48-48v-416c0-26.4 21.6-48 48-48h384c26.4 0 48 21.6 48 48v416c0 26.4-21.6 48-48 48zM416 32h-352v384h352v-384zM128 192h224v-32h-224zM128 128h224v-32h-224zM160 336c0-26.51 21.49-48 48-48s48 21.49 48 48c0 26.51-21.49 48-48 48s-48-21.49-48-48zM240 288h-64c-26.4 0-48-14.4-48-32v-32h160v32c0 17.6-21.6 32-48 32z" />
<glyph unicode="&#xe00a;" d="M329.372 105.372l-105.372 105.373v141.255h64v-114.745l86.628-86.627zM256 480c-141.385 0-256-114.615-256-256s114.615-256 256-256 256 114.615 256 256-114.615 256-256 256zM256 32c-106.039 0-192 85.961-192 192s85.961 192 192 192c106.039 0 192-85.961 192-192s-85.961-192-192-192z" />
<glyph unicode="&#xe00b;" d="M160 288h64v-64h-64zM256 288h64v-64h-64zM352 288h64v-64h-64zM64 96h64v-64h-64zM160 96h64v-64h-64zM256 96h64v-64h-64zM160 192h64v-64h-64zM256 192h64v-64h-64zM352 192h64v-64h-64zM64 192h64v-64h-64zM416 480v-32h-64v32h-224v-32h-64v32h-64v-512h480v512h-64zM448 0h-416v352h416v-352z" />
<glyph unicode="&#xe00c;" d="M256 384c-111.659 0-208.441-65.021-256-160 47.559-94.979 144.341-160 256-160 111.657 0 208.439 65.021 256 160-47.558 94.979-144.343 160-256 160zM382.225 299.148c30.081-19.187 55.571-44.887 74.717-75.148-19.146-30.261-44.637-55.961-74.718-75.149-37.797-24.108-81.445-36.851-126.224-36.851-44.78 0-88.428 12.743-126.225 36.852-30.080 19.186-55.57 44.886-74.717 75.148 19.146 30.262 44.637 55.962 74.717 75.148 1.959 1.25 3.938 2.461 5.929 3.65-4.979-13.664-7.704-28.411-7.704-43.798 0-70.692 57.308-128 128-128s128 57.308 128 128c0 15.387-2.725 30.134-7.704 43.799 1.99-1.189 3.969-2.401 5.929-3.651zM256 275c0-26.51-21.49-48-48-48s-48 21.49-48 48 21.49 48 48 48 48-21.49 48-48z" />
<glyph unicode="&#xe00d;" d="M192 224h-160v64h160v64l96-96-96-96zM512 480v-416l-192-96v96h-192v128h32v-96h160v288l128 64h-288v-128h-32v160z" />
<glyph unicode="&#xe00e;" d="M367.497 77.313c-9.476 1.494-9.692 27.327-9.692 27.327s27.844 27.328 33.912 64.076c16.326 0 26.407 39.069 10.082 52.814 0.681 14.47 20.984 113.588-81.799 113.588s-82.479-99.118-81.799-113.588c-16.327-13.745-6.244-52.814 10.081-52.814 6.067-36.748 33.913-64.076 33.913-64.076s-0.216-25.833-9.692-27.327c-30.524-4.816-144.503-54.658-144.503-109.313h384c0 54.655-113.979 104.497-144.503 109.313zM172.027 68.595c22.047 13.575 48.813 26.154 70.769 33.712-7.876 11.216-16.647 26.468-22.165 44.531-7.703 6.283-13.972 15.266-17.999 26.301-4.033 11.052-5.561 23.426-4.304 34.842 0.902 8.196 3.239 15.833 6.825 22.544-2.175 23.293-3.707 69.017 26.224 102.366 11.607 12.933 26.278 22.23 43.85 27.843-3.137 32.38-19.58 70.385-83.227 70.385-102.782 0-82.479-99.118-81.799-113.588-16.327-13.745-6.244-52.814 10.081-52.814 6.067-36.748 33.913-64.076 33.913-64.076s-0.216-25.833-9.692-27.327c-30.524-4.817-144.503-54.659-144.503-109.314h164.798c2.355 1.537 4.753 3.070 7.229 4.595z" />
<glyph unicode="&#xe00f;" d="M256 480c-141.385 0-256-114.615-256-256s114.615-256 256-256 256 114.615 256 256-114.615 256-256 256zM256 16c-114.875 0-208 93.125-208 208s93.125 208 208 208 208-93.125 208-208-93.125-208-208-208zM224 352h64v-64h-64zM320 96h-128v32h32v96h-32v32h96v-128h32z" />
<glyph unicode="&#xe600;" d="M416 0l96 256h-416l-96-256zM64 288l-64-288v416h144l64-64h208v-64z" />
<glyph unicode="&#xe601;" d="M416 448h-320l-96-96v-336c0-8.837 7.163-16 16-16h480c8.836 0 16 7.163 16 16v336l-96 96zM256 64l-160 128h96v96h128v-96h96l-160-128zM77.255 384l32 32h293.489l32-32h-357.489z" />
<glyph unicode="&#xe602;" d="M64 32h448v-64h-512v512h64zM144 64c-26.51 0-48 21.49-48 48s21.49 48 48 48c1.414 0 2.811-0.074 4.194-0.193l51.596 85.993c-4.92 7.535-7.79 16.531-7.79 26.201 0 26.51 21.49 48 48 48s48-21.49 48-48c0-9.671-2.87-18.666-7.79-26.201l51.596-85.993c1.383 0.119 2.78 0.193 4.194 0.193 1.068 0 2.124-0.047 3.175-0.115l85.178 149.061c-5.268 7.704-8.353 17.018-8.353 27.055 0 26.51 21.49 48 48 48s48-21.49 48-48c0-26.51-21.49-48-48-48-1.070 0-2.124 0.047-3.175 0.116l-85.178-149.062c5.268-7.703 8.353-17.018 8.353-27.055 0-26.51-21.49-48-48-48s-48 21.49-48 48c0 9.67 2.87 18.666 7.789 26.201l-51.595 85.992c-1.383-0.119-2.78-0.193-4.194-0.193s-2.811 0.073-4.194 0.193l-51.596-85.993c4.92-7.534 7.79-16.53 7.79-26.2 0-26.51-21.49-48-48-48z" />
<glyph unicode="&#xe603;" d="M512 256h-50.462c-13.82 89.12-84.418 159.718-173.538 173.538v50.462h-64v-50.462c-89.12-13.82-159.718-84.418-173.538-173.538h-50.462v-64h50.462c13.82-89.12 84.418-159.718 173.538-173.538v-50.462h64v50.462c89.12 13.82 159.718 84.418 173.538 173.538h50.462v64zM396.411 256h-49.881c-9.642 27.275-31.255 48.889-58.53 58.53v49.881c53.757-12.245 96.166-54.655 108.411-108.411zM256 192c-17.673 0-32 14.327-32 32s14.327 32 32 32c17.673 0 32-14.327 32-32s-14.327-32-32-32zM224 364.411v-49.881c-27.275-9.641-48.889-31.255-58.53-58.53h-49.881c12.245 53.756 54.655 96.166 108.411 108.411zM115.589 192h49.881c9.641-27.275 31.255-48.889 58.53-58.53v-49.881c-53.756 12.245-96.166 54.654-108.411 108.411zM288 83.589v49.881c27.275 9.642 48.889 31.255 58.53 58.53h49.881c-12.245-53.757-54.654-96.166-108.411-108.411z" />
<glyph unicode="&#xe604;" d="M224 82.745l-102.627 118.627 29.254 29.255 73.373-57.372 137.372 121.372 29.256-29.254zM415.886 416c0.039-0.033 0.081-0.075 0.114-0.115v-383.771c-0.033-0.039-0.075-0.081-0.114-0.114h-319.772c-0.040 0.033-0.081 0.075-0.114 0.114v383.772c0.033 0.040 0.075 0.081 0.115 0.114h-64.115v-384c0-35.2 28.8-64 64-64h320c35.2 0 64 28.8 64 64v384h-64.114zM320 416v32c0 17.673-14.327 32-32 32h-64c-17.673 0-32-14.327-32-32v-32h-64v-64h256v64h-64zM288 416h-64v32h64v-32z" />
<glyph unicode="&#xe605;" d="M512 281.475l-176.89 25.704-79.11 160.291-79.108-160.291-176.892-25.704 128-124.769-30.216-176.176 158.216 83.179 158.216-83.179-30.217 176.176 128.001 124.769zM256 103.251l-111.731-58.74 21.338 124.415-90.393 88.111 124.92 18.152 55.866 113.198 55.868-113.198 124.918-18.152-90.394-88.111 21.339-124.415-111.731 58.74z" />
</font></defs></svg>

<?xml version="1.0" standalone="no"?>
<!DOCTYPE svg PUBLIC "-//W3C//DTD SVG 1.1//EN" "http://www.w3.org/Graphics/SVG/1.1/DTD/svg11.dtd" >
<svg xmlns="http://www.w3.org/2000/svg">
<metadata>
This is a custom SVG font generated by IcoMoon.
<iconset grid="16"></iconset>
</metadata>
<defs>
<font id="icomoon" horiz-adv-x="512" >
<font-face units-per-em="512" ascent="480" descent="-32" />
<missing-glyph horiz-adv-x="512" />
<glyph class="hidden" unicode="&#xf000;" d="M0,480L 512 -32L0 -32 z" horiz-adv-x="0" />
<glyph unicode="&#xe000;" d="M 311.413,128.632c-11.055,1.759-11.307,32.157-11.307,32.157s 32.484,32.158, 39.564,75.401
	c 19.045,0, 30.809,45.973, 11.761,62.148C 352.226,315.365, 375.911,432, 256,432c-119.911,0-96.225-116.635-95.432-133.662
	c-19.047-16.175-7.285-62.148, 11.761-62.148c 7.079-43.243, 39.564-75.401, 39.564-75.401s-0.252-30.398-11.307-32.157
	C 164.976,122.966, 32,64.315, 32,0l 224,0 l 224,0 C 480,64.315, 347.024,122.966, 311.413,128.632z"  />
<glyph unicode="&#xe001;" d="M 512,175.953l0,96.094 l-73.387,12.231c-2.979,9.066-6.611,17.834-10.847,26.25l 43.227,60.517l-67.948,67.949l-60.413-43.152
		c-8.455,4.277-17.269,7.944-26.384,10.951L 304.047,480l-96.094,0 l-12.201-73.208c-9.115-3.007-17.929-6.674-26.383-10.951
		l-60.414,43.152l-67.949-67.949l 43.227-60.518c-4.235-8.415-7.867-17.183-10.846-26.249L0,272.047l0-96.094 l 73.559-12.26
		c 2.98-8.984, 6.605-17.674, 10.821-26.015l-43.374-60.724l 67.949-67.948l 60.827,43.447c 8.301-4.175, 16.945-7.764, 25.882-10.717
		L 207.953-32l 96.094,0 l 12.289,73.737c 8.937,2.953, 17.581,6.542, 25.883,10.716l 60.826-43.446l 67.948,67.948l-43.372,60.723
		c 4.216,8.341, 7.839,17.031, 10.82,26.016L 512,175.953z M 256,160c-35.346,0-64,28.653-64,64c0,35.346, 28.654,64, 64,64
		c 35.347,0, 64-28.654, 64-64C 320,188.653, 291.347,160, 256,160z"  />
<glyph unicode="&#xe002;" d="M0,64L 512,64L 512,0L0,0zM 64,192L 128,192L 128,96L 64,96zM 160,320L 224,320L 224,96L 160,96zM 256,224L 320,224L 320,96L 256,96zM 352,416L 416,416L 416,96L 352,96z"  />
<glyph unicode="&#xe003;" d="M 544,29.417 C 544,6.667 557.014-13.037 576-22.675 L 576-30.644 C 570.687-31.371 565.264-31.756 559.75-31.756 C 525.746-31.756 495.076-17.492 473.389,5.376 C 460.278,1.885 446.388,0 432,0 C 352.471,0 288,57.308 288,128 C 288,198.692 352.471,256 432,256 C 511.529,256 576,198.692 576,128 C 576,100.326 566.118,74.704 549.322,53.767 C 545.91,46.355 544,38.111 544,29.417 ZM 256,480 C 395.229,480 508.496,389.693 511.918,277.24 C 487.327,288.2 460.125,294 432,294 C 384.22,294 339.092,277.277 304.931,246.911 C 269.508,215.425 250,173.194 250,128 C 250,105.664 254.772,84.056 263.868,64.106 C 261.254,64.043 258.634,64 256,64 C 242.422,64 229.095,64.867 216.088,66.522 C 161.099,11.533 95.463,1.672 32,0.224 L 32,13.682 C 66.268,30.471 96,61.052 96,96 C 96,100.877 95.621,105.665 94.918,110.348 C 37.020,148.48 0,206.725 0,272 C 0,386.875 114.615,480 256,480 Z" horiz-adv-x="576"  />
<glyph unicode="&#xe004;" d="M 320,406.706l0-67.979 c 18.103-7.902, 34.75-19.204, 49.137-33.59C 399.358,274.917, 416,234.737, 416,192
		s-16.643-82.917-46.863-113.137C 338.917,48.643, 298.738,32, 256,32s-82.917,16.643-113.137,46.863
		C 112.643,109.083, 96,149.263, 96,192s 16.643,82.917, 46.863,113.137c 14.387,14.387, 31.034,25.689, 49.137,33.591L 192,406.706 
		C 99.476,379.166, 32,293.47, 32,192c0-123.712, 100.289-224, 224-224c 123.712,0, 224,100.288, 224,224
		C 480,293.47, 412.525,379.166, 320,406.706zM 224,480L 288,480L 288,224L 224,224z"  />
<glyph unicode="&#xe005;" d="M 501.467,71.062l-230.276,197.38C 281.915,288.591, 288,311.583, 288,336C 288,415.529, 223.529,480, 144,480
	c-14.547,0-28.586-2.166-41.823-6.177l 83.195-83.195c 12.445-12.445, 12.445-32.81,0-45.255l-50.745-50.745
	c-12.445-12.445-32.81-12.445-45.255,0L 6.177,377.823C 2.166,364.586,0,350.547,0,336c0-79.529, 64.471-144, 144-144
	c 24.417,0, 47.409,6.085, 67.558,16.81l 197.38-230.276c 11.454-13.362, 31.008-14.113, 43.452-1.669l 50.746,50.746
	C 515.58,40.055, 514.829,59.608, 501.467,71.062z"  />
<glyph unicode="&#xe006;" d="M 352,480c-88.365,0-160-71.634-160-160c0-10.013, 0.929-19.808, 2.688-29.312L0,96l0-96 c0-17.673, 14.327-32, 32-32
	l 32,0 l0,32 l 64,0 l0,64 l 64,0 l0,64 l 64,0 l 41.521,41.521C 314.526,163.363, 332.869,160, 352,160c 88.365,0, 160,71.634, 160,160S 440.365,480, 352,480z
	 M 399.937,319.937c-26.51,0-48,21.49-48,48s 21.49,48, 48,48s 48-21.49, 48-48S 426.447,319.937, 399.937,319.937z"  />
<glyph unicode="&#xe007;" d="M 192,64L 512,64L 512,0L 192,0zM 192,256L 512,256L 512,192L 192,192zM 192,448L 512,448L 512,384L 192,384zM 96,480 L 96,352 L 64,352 L 64,448 L 32,448 L 32,480 ZM 64,217 L 64,192 L 128,192 L 128,160 L 32,160 L 32,233 L 96,263 L 96,288 L 32,288 L 32,320 L 128,320 L 128,247 ZM 128,128 L 128-32 L 32-32 L 32,0 L 96,0 L 96,32 L 32,32 L 32,64 L 96,64 L 96,96 L 32,96 L 32,128 Z"  />
<glyph unicode="&#xe008;" d="M0,448l0-448 l 512,0 L 512,448 L0,448 z M 192,160l0,96 l 128,0 l0-96 L 192,160 z M 320,128l0-96 L 192,32 l0,96 L 320,128 z M 320,384l0-96 L 192,288 L 192,384 L 320,384 z M 160,384l0-96 L 32,288 L 32,384 L 160,384 z
	 M 32,256l 128,0 l0-96 L 32,160 L 32,256 z M 352,256l 128,0 l0-96 L 352,160 L 352,256 z M 352,288L 352,384 l 128,0 l0-96 L 352,288 z M 32,128l 128,0 l0-96 L 32,32 L 32,128 z M 352,32l0,96 l 128,0 l0-96 L 352,32 z"  />
<glyph unicode="&#xe009;" d="M 432,480L 48,480 C 21.6,480,0,458.4,0,432l0-416 c0-26.4, 21.6-48, 48-48l 384,0 c 26.4,0, 48,21.6, 48,48L 480,432 C 480,458.4, 458.4,480, 432,480z M 416,32L 64,32 
		L 64,416 l 352,0 L 416,32 zM 128,192L 352,192L 352,160L 128,160zM 128,128L 352,128L 352,96L 128,96zM 160,336A48,48 4860 1 1 256,336A48,48 4860 1 1 160,336zM 240,288l-64,0 c-26.4,0-48-14.4-48-32l0-32 l 160,0 l0,32 C 288,273.6, 266.4,288, 240,288z"  />
<glyph unicode="&#xe00a;" d="M 329.372,105.372L 224,210.745L 224,352L 288,352L 288,237.255L 374.628,150.628 	zM 256,480C 114.615,480,0,365.385,0,224s 114.615-256, 256-256s 256,114.615, 256,256S 397.385,480, 256,480z M 256,32
		c-106.039,0-192,85.961-192,192c0,106.039, 85.961,192, 192,192c 106.039,0, 192-85.961, 192-192C 448,117.961, 362.039,32, 256,32z"  />
<glyph unicode="&#xe00b;" d="M 160,288L 224,288L 224,224L 160,224zM 256,288L 320,288L 320,224L 256,224zM 352,288L 416,288L 416,224L 352,224zM 64,96L 128,96L 128,32L 64,32zM 160,96L 224,96L 224,32L 160,32zM 256,96L 320,96L 320,32L 256,32zM 160,192L 224,192L 224,128L 160,128zM 256,192L 320,192L 320,128L 256,128zM 352,192L 416,192L 416,128L 352,128zM 64,192L 128,192L 128,128L 64,128zM 416,480l0-32 l-64,0 L 352,480 L 128,480 l0-32 L 64,448 L 64,480 L0,480 l0-512 l 480,0 L 480,480 L 416,480 z M 448,0L 32,0 L 32,352 l 416,0 L 448,0 z"  />
<glyph unicode="&#xe00c;" d="M 256,384C 144.341,384, 47.559,318.979,0,224c 47.559-94.979, 144.341-160, 256-160c 111.657,0, 208.439,65.021, 256,160
	C 464.442,318.979, 367.657,384, 256,384z M 382.225,299.148c 30.081-19.187, 55.571-44.887, 74.717-75.148
	c-19.146-30.261-44.637-55.961-74.718-75.149C 344.427,124.743, 300.779,112, 256,112c-44.78,0-88.428,12.743-126.225,36.852
	C 99.695,168.038, 74.205,193.738, 55.058,224c 19.146,30.262, 44.637,55.962, 74.717,75.148c 1.959,1.25, 3.938,2.461, 5.929,3.65
	C 130.725,289.134, 128,274.387, 128,259c0-70.692, 57.308-128, 128-128s 128,57.308, 128,128c0,15.387-2.725,30.134-7.704,43.799
	C 378.286,301.61, 380.265,300.398, 382.225,299.148z M 256,275c0-26.51-21.49-48-48-48s-48,21.49-48,48s 21.49,48, 48,48
	S 256,301.51, 256,275z"  />
<glyph unicode="&#xe00d;" d="M 192,224 L 32,224 L 32,288 L 192,288 L 192,352 L 288,256 L 192,160 ZM 512,480 L 512,64 L 320-32 L 320,64 L 128,64 L 128,192 L 160,192 L 160,96 L 320,96 L 320,384 L 448,448 L 160,448 L 160,320 L 128,320 L 128,480 Z"  />
<glyph unicode="&#xe00e;" d="M 367.497,77.313c-9.476,1.494-9.692,27.327-9.692,27.327s 27.844,27.328, 33.912,64.076
	c 16.326,0, 26.407,39.069, 10.082,52.814c 0.681,14.47, 20.984,113.588-81.799,113.588c-102.782,0-82.479-99.118-81.799-113.588
	c-16.327-13.745-6.244-52.814, 10.081-52.814c 6.067-36.748, 33.913-64.076, 33.913-64.076s-0.216-25.833-9.692-27.327
	C 241.979,72.497, 128,22.655, 128-32l 192,0 l 192,0 C 512,22.655, 398.021,72.497, 367.497,77.313zM 172.027,68.595c 22.047,13.575, 48.813,26.154, 70.769,33.712c-7.876,11.216-16.647,26.468-22.165,44.531
	c-7.703,6.283-13.972,15.266-17.999,26.301c-4.033,11.052-5.561,23.426-4.304,34.842c 0.902,8.196, 3.239,15.833, 6.825,22.544
	c-2.175,23.293-3.707,69.017, 26.224,102.366c 11.607,12.933, 26.278,22.23, 43.85,27.843C 272.090,393.114, 255.647,431.119, 192,431.119
	c-102.782,0-82.479-99.118-81.799-113.588c-16.327-13.745-6.244-52.814, 10.081-52.814c 6.067-36.748, 33.913-64.076, 33.913-64.076
	s-0.216-25.833-9.692-27.327C 113.979,168.497,0,118.655,0,64l 164.798,0 C 167.153,65.537, 169.551,67.070, 172.027,68.595z"  />
<glyph unicode="&#xe00f;" d="M 256,480C 114.615,480,0,365.385,0,224s 114.615-256, 256-256s 256,114.615, 256,256S 397.385,480, 256,480z M 256,16
		c-114.875,0-208,93.125-208,208S 141.125,432, 256,432s 208-93.125, 208-208S 370.875,16, 256,16zM 224,352L 288,352L 288,288L 224,288zM 320,96L 192,96L 192,128L 224,128L 224,224L 192,224L 192,256L 288,256L 288,128L 320,128 z"  />
<glyph unicode="&#x20;" horiz-adv-x="256" />
</font></defs></svg>
